X:193
T:Tenpenny Bit, The    
B:CRE1.024 (Piosa Deich bPingne)
F:file ID: cre.1/193tenp_b
S:George Rawley
M:6/8
Q:160
R:jig
K:Am
D|EAA G2A|BEE GED|EAA G2A|BAG A2D|
EAA G2A|BEE GED|EAA G2A|BAG A2:|
d|e2^f gfg|eaa ged|e2^f gfg|eaa a2g|
aba age|ged cde|g^fg edB|BAA A2:|

%%%

